X: 11191
T: HERO'S QUICKSTEP
C:
%R: quickstep, march
N: This is version 1, for ABC software that doesn't understand voice overlays and tremolo notation.
B: Elias Howe "The Musician's Companion" Part 1 1842 p.119-123
S: http://imslp.org/wiki/The_Musician's_Companion_(Howe,_Elias)
N: The Fife, Trumpet and Cornopeon have no (i.e., C) keysig in the book; they only make sense for an Ab instrument.
N: In bar 32, the instrument names above the staff are rearranged: not transcribed here.
N: In bars 33-40, voice 2 splits into two voices (the lower, not transcribed here, is just F notes on the off-beats).
N: The final chord in the bottom 4 voices are almost certainly wrong.
Z: 2015 John Chambers <jc:trillian.mit.edu>
M: 2/4
L: 1/16
K: Ab
%%indent 90
% - - - - - - - - - - - - - - - - - - - - - - - - -
V: 1 name="Fife in Ab" sname="Fife" staves=6
K: none
"[p.119]"\
[| !f!\
c6 .d2 | .e2.f2.g2.a2 | g4 z4 | "_fz"g6 (3(fed) | c4 (agfe) | d4 z4 |
g6 (3(fed) | c4 z4 | "Ad lib."z2 ({a}g2^f2g2) | [c'6c4] g2 |\
(e2c2a2g2) | (g6 ^f2 | =f2)({g}f2e2f2) | d'6 (d'c') |
"[p.120]"\
(c'b)(ba) (ag)(gf) | g3f e2z2 | z2 !f!({a}g2^f2g2) |\
(c'6 ba) | (b6 a^g) | (a6 ^g2) |: !p!(=g2^fg e'2d'2) | c'2(^fg a2g2) |
(=f2^cd a2)g2 | (e2Bc) .c.d.e.^f | .g2(^fg e'2d'2) | c'2(^fg a2g2) |\
(=f2^cd a2)g2 | c4 z4 :: !f!a6 .^g2 | .a2.b2.c'2.d'2 |
"[p.121]"\
e'4 z4 | "Ad lib."e8 | (a2g2) g3d | (f2e2) e3c |\
(e2d2) (df).e.d | (cB).c.e  .g2.g2 | (a2g2) g3d | (f2e2) e3c |
(e2d2) (de).e.d | c4 c'4 | (a2g2) g3d | (f2e2) e3c |\
(e2d2) (df).e.d | (cB).c.e .g2.g2 | (a2g2) g3d | (f2e2) e3c |
"p.122"\
(e2d2) (df).e.d | c6 z2 :| z4 "_>fz"b4 | z4 b4 |\
"^Ad. lib."e6 (f2 | ^f2g2a2g2) | (g6 "_cresc."a2 | b2c'2d'2^d'2) |
e'6 (d'2 | c'2b2)a2g2 | !p!(gfd2) b4 | (gfd2) b4 |\
!p!(e6 f2 | ^f2g2a2)g2 | g2(a2b2c'2 | ^c'2d'2e'2)d'2 |
"p.123"\
(d'8 | c'6) "ad lib"z2 ::\
eee2 f2e2 | (e2d2) d4 | ddd2 e2d2 | (d2c2) c4 |\
eee2 f2e2 | (e2d2) d4 | ddd2 e2d2 | d2z2 c'4 |
"^8va . . . ."\
eee2 f2e2 | (e2d2) d4 | ddd2 e2d2 | (d2c2) c4 |\
eee2 f2e2 | (e2d2) d4 | ddd2 e2d2 | c4 z2b2 |\
.c'2.b2.c'2.b2 | c'4 z3e' | e'4 z3c | c8 |]
% - - - - - - - - - - - - - - - - - - - - - - - - -
V: 2 name="Bugle in Bb" sname="Bugle"
K: Bb
[| !f!\
B6 .c2 | .d2.e2.f2.g2 | f4 z4 | "_fz"f6 (3(edc) | B4 (gfed) | c4 z4 |
"_fz"f6 (3(edc) | B4 z4 | !p!z2 ({a}f2=e2f2) | b6 f2 |\
(d2B2g2f2) | (f6 =e2 | _e2)({f}e2d2e2) | c'6 (c'b) |
(ba)(ag) (gf)(fe) | f3e d2z2 | z2 !f!({a}f2=e2f2) |\
(b6 ag) | (a6 g^f) | (g6 ^f2) |: !p!(=f2[=e=E][fF] [d'2d2][c'2c2]) | [b2B2](=ef g2f2) |
(_e2=Bc g2)f2 | (d2AB) .c.d.e.=e | (f2[=e=E][fF] [d'2d2][c'2c2]) | [b2B2](=ef g2f2) |\
(_e2=Bc g2)f2 | B4 z4 :: "(8va Ad lib."G6 ^F2 | .G2.A2.B2.c2 |
d4 z4 | d8 | !p!(g2f2) f3c | e2d2 d3B |\
(d2c2) (ce).d.c | (BA).B.d .f2.f2 | (g2f2) g3c | (e2d2) d3B |
(d2c2) (ce).d.c | [B4F4] "^fz"b4 | (g2f2) f3c | (e2d2) d3B |\
(d2c2) (ce).d.c | (BA).B.d .f2.f2 | (g2f2) f3c | (f2e2) e3B |
(d2c2) (ce).d.c | B6 z2 :| !p!(fe).c2 "_fz"a4 | (fe).c2 a4 |\
!p!(d6 e2 | =e2f2g2f2) | ("^8va ad lib."F6 "_cresc."G2 | A2B2c2^c2) |
(d6 "dim. . . ."c2 | B2A2G2) F2 | !p!(fec2) "^fz"a4 | (fec2) a4 |\
!p!(d6 e2 | =e2f2)g2f2 | "^8va ad lib."(F2G2A2"^cresc."B2 | =B2c2d2)c2 |
("^dim . . ."c8 | B6) z2 ::\
ddd2 e2d2 | (d2c2) c4 | ccc2 d2c2 | (c2B2) B4 |\
ddd2 e2d2 | (d2c2) c4 | ccc2 d2c2 | B2"^fz"z2 b4 |\
!f!\
fff2 g2f2 | (f2e2) e4 | eee2 f2e2 | (e2d2) d4 |\
fff2 g2f2 | (f2e2) e4 | eee2 f2e2 | d4 !ff!z2a2 |\
.b2.a2.b2.a2 | b4 z3b | b4 z3B | B8 |]
% - - - - - - - - - - - - - - - - - - - - - - - - -
V: 3 name="Trumpet in Ab" sname="Trump"
K: none
[| !f!\
c6 .d2 | .e2.f2.g2.a2 | g4 z4 | "_fz"(B8 | c4) (^c4 | d4) z4 |
B8 | c2GG G2G2 | G2G2 G2G2 | z2 G2G2G2 |\
z2G2G2G2 | z2G2G2G2 | z2 G2G2G2 | z2 G2G2G2 |
z2G2G2G2 | z2G2G2G2 | !f!G4 z4 |\
c2c2c2z2 | d2d2d2z2 | c2c2c2z2 |: z2G2 z2G2 | z2G2 z2G2 |
z2G2 z2G2 | G2z2 z4 | z2G2 z2G2 | z2G2 z2G2 |\
z2G2 z2G2 | G2G2G2z2 :: !f!A6 ^G2 | .A2.B2.c2.d2 |
e4 z4 | B8 | (a2g2) g3d | (f2e2) e3c |\
(e2d2) .d.f(ed) | (cB).c.e g2g2 | (a2g2) g3d | (f2e2) e3c |
e2d2 (ef).e.d | B4 e4 | z2G2 z2G2 | z2G2 z2G2 |\
z2G2 z2G2 | z2G2 z2G2 | z2G2 z2G2 | z2G2 z2G2 |
z2G2 z2G2 | G2G2G2z2 :| !p!d2z2 "^fz"f4 | !p!d2z2 "^fz"f4 |\
!p!(E6 F2 | ^F2G2A2G2) | (G6 "_cresc."A2 | B2c2d2^d2) |
(e6 d2 | c2B2A2)G2 | d2z2 f4 | d2z2 f4 |\
!p!(E6 F2  | ^F2G2)A2G2 | (G2A2B2"_cresc."c2 | ^c2d2e2d2) |
("dim . . ."d8 | c6) z2 ::!p!\
eee2 f2e2 | e2d2 d4 | ddd2 e2d2 | d2c2 c4 |\
eee2 f2e2 | e2d2 d4 | ddd2 e2d2 | c2z2 e4 |
eee2 f2e2 | (e2d2) d4 | ddd2 e2d2 | (d2c2) c4 |\
eee2 f2e2 | e2d2 d4 | ddd2 e2d2 | c4 z2.f2 |\
.e2.f2.e2.f2 | e4 z3e | e4 z3G | f8 |]
% - - - - - - - - - - - - - - - - - - - - - - - - -
V: 4 name="Cornopeon in Ab" sname="Corn"
K: none
[| !f!\
c6 .d2 | .e2.f2.g2.a2 | g4 z4 | "_fz"(F8 | E4) (G4 | F4) z4 |
F8 | E2EE E2E2 | E2E2 E2E2 | z2 E2E2E2 |\
z2E2E2E2 | z2F2F2F2 | z2 F2F2F2 | z2 F2F2F2 |
z2F2F2F2 | z2E2E2E2 | !f!E4 z4 |\
A2A2A2z2 | ^G2G2G2z2 | A2A2A2z2 |: z2F2 z2F2 | z2E2 z2E2 |
z2D2 z2D2 | E2z2 z4 | z2F2 z2F2 | z2E2 z2E2 |\
z2F2 z2F2 | E2E2E2z2 :: !f!A6 ^G2 | .A2.B2.c2.d2 |
e4 z4 | "fz>"^G8 | z2[G2D2] z2[G2D2] | z2[G2E2] z2[G2E2] |\
z2[G2F2] z2[G2F2] | z2[G2E2] z2[G2E2] | z2[G2D2] z2[G2D2] | z2[G2E2] z2[G2E2] |
z2[G2F2] z2[G2F2] | [G4E4] G4 | z2D2 z2D2 | z2E2 z2E2 |\
z2F2 z2F2 | z2E2 z2E2 | z2D2 z2D2 | z2E2 z2E2 |
z2F2 z2F2 | E2E2E2z2 :| G2z2 D4 | G2z2 D4 | (C6 D2 | ^D2E2=F2E2) | (B,6 "_cresc."C2 | D2E2F2^F2) |
(G6 F2 | E2G2F2)E2 | G2z2 D4 | B2z2 D4 |\
!p!(C6 D2 | ^D2E2)F2E2 | (B,2C2D2"_cresc."E2 | E2F2G2F2) |
("dim . . ."F8 | E6) z2 ::!p!\
GGG2 A2G2 | G2F2 F4 | FFF2 G2F2 | F2E2 E4 |\
GGG2 A2G2 | G2F2 F4 | FFF2 G2F2 | E2z2 G4 |
GGG2 A2G2 | (G2F2) F4 | FFF2 G2F2 | (F2E2) E4 |\
GGG2 A2G2 | G2F2 F4 | FFF2 G2F2 | E4 z2.d2 |\
.c2.d2.c2.d2 | c4 z3G | G4 z3E | F8 |]
% - - - - - - - - - - - - - - - - - - - - - - - - -
V: 5 name="Trombone" sname="Trom" clef=bass middle=D
K: Ab
[| !f!\
A6 .B2 | .c2.d2.e2.f2 | e4 z4 | "_fz"(B8 | A4) "_fz"(c4 | d4) z4 |
B8 | !p!A2AA A2A2 | A2A2 A2A2 | z2A2A2A2 |\
z2A2A2A2 | z2B2B2B2 | z2B2B2B2 | z2G2G2G2 |
z2G2G2G2 | z2A2A2A2 | A4z4 |\
!f!c2c2c2z2 | c2c2c2z2 | d2d2d2z2 |: z2B2 z2G2 | z2A2 z2A2 |
z2G2 z2G2 | A2z2 z4 | z2B2 z2G2 | z2A2 z2A2 |\
z2G2 z2G2 | A2A2A2z2 :: !f!F6 .=E2 | .F2.G2.A2.B2 |
c4 z4 | c8 | !p!z2G2 z2G2 | z2A2 z2A2 |\
z2G2 z2G2 | z2A2 z2A2 | z2G2 z2G2 | z2A2 z2A2 |
z2G2 z2G2 | A4 "^Fz"A4 | z2G2 z2G2 | z2A2 z2A2 |\
z2G2 z2G2 | z2A2 z2A2 | z2G2 z2G2 | z2A2 z2A2 |
z2G2 z2G2 | A2A2A2z2 :| !p!G2z2 "^fz"E4 | !p!G2z2 !f!E4 |\
!p!A8- | A8 | E8- | E8 |
"dim. . . ."A8- | A8 | !p!G2z2 "^fz"E4 | G2z2 E4 |\
!p!A8- | A8 | E8- | E8 |
z2"dim . . ."E2F2G2 | A2A2A2z2 ::!p!\
AAA2 A2A2 | E4 A4 | EEE2 E2E2 | A4 A4 |\
AAA2 A2A2 | E4 A4 | EEE2 E2E2 | A2"^fz"z2 A4 |
!f!\
AAA2 A2A2 | E4 E4 | EEE2 E2E2 | A4 A4 |\
AAA2 A2A2 | E4 G4 | EEE2 E2E2 | A4 z2.E2 |\
.A2.E2.A2.E2 | A4 z3c | c4 z3A | B,8 |]
% - - - - - - - - - - - - - - - - - - - - - - - - -
V: 6 name="Ophicleide" sname="Oph" clef=bass middle=d
K: Ab
[| !f!\
A6 .B2 | .c2 z6 | z8 | "_fz"(E8 | A4) "_fz"(F4 | F4) z4 |
E8 | !p!A2A2c2c2 | A4 z4 | A4 z4 |\
A4 z4 | e4 z4 | e4 z4 | E4 z4 |
E4 z4 | A2z2 a2z2 | A4 z4 |\
!f!F2F2F2z2 | c2c2c2z2 | d2d2d2z2 |: [e2E2]z2 [e2E2]z2 | A2z2 A2z2 |
[e2E2]z2 [e2E2]z2 | A2z2 z4 | [e2E2]z2 [e2E2]z2 | A2z2 A2z2 |\
E2z2 E2z2 | A2A2A2z2 :: F6 .=E2 | .F2.G2.A2.B2 |
c4 z4 | c8 | [e2E2]z2 [e2E2]z2 | A2z2 A2z2 |\
[e2E2]z2 [e2E2]z2 | A2z2 A2z2 | [e2E2]z2 [e2E2]z2 | A2z2 A2z2 |
[e2E2]z2 [e2E2]z2 | A4 "^fz"A4 | [e2E2]z2 [e2E2]z2 | A2z2 A2z2 |\
[e2E2]z2 [e2E2]z2 | A2z2 A2z2 | [e2E2]z2 [e2E2]z2 | A2z2 A2z2 |
[e2E2]z2 [e2E2]z2 | A2A2A2z2 :| !p!e2z2 "^fz"E4 | !p!e2z2 !f!E4 |\
!p!A8- | A8 | E8- | E8 |
"dim. . . ."A8- | A8 | !p!e2z2 "^fz"E4 | e2z2 E4 |\
!p!A8- | A8 | E8- | E8 |
(E8 | A2)A2A2z2 :: !p!\
A2z2 A2z2 | E4 G2d2 | e2z2 e2z2 | A4 e2c2 |\
A2z2 A2z2 | E4 G2B2 | e2z2 e2z2 | A2"^fz"z2 A4 |
A2z2 A2z2 | E4 G2B2 | e2z2 e2z2 | A4 e2c2 |\
A2z2 A2z2 | E4 G2B2 | e2z2 e2z2 | A4 !ff!z2.E2 |\
.A2.E2.A2.E2 | A4 z3a | A4 z3A | G8 |]
% - - - - - - - - - - - - - - - - - - - - - - - - -
